static/assets/svg/human/humanClothes/female_shirt1_stickers/female_shirt1_sticker20.svg

<svg class="shirtOverlay" width="86" height="380" viewBox="202.715 584.407 86.593 380.048" xmlns="http://www.w3.org/2000/svg"><defs><radialGradient id="a" gradientUnits="userSpaceOnUse" cx="75.113" cy="535.828" r="154.283"><stop offset="0" stop-color="#373737"/><stop offset="1" stop-color="#040404"/></radialGradient><radialGradient id="b" gradientUnits="userSpaceOnUse" cx="222.426" cy="613.949" r="64.707"><stop offset="0" stop-color="#373737"/><stop offset="1" stop-color="#040404"/></radialGradient><radialGradient id="c" gradientUnits="userSpaceOnUse" cx="544.678" cy="619.647" r="62.354"><stop offset="0" stop-color="#373737"/><stop offset="1" stop-color="#040404"/></radialGradient><radialGradient id="d" gradientUnits="userSpaceOnUse" cx="865.03" cy="880.213" r="153.876"><stop offset="0" stop-color="#373737"/><stop offset="1" stop-color="#040404"/></radialGradient></defs><g transform="matrix(.04938 -.00207 -.00958 .0666 232.062 729.376)"><path d="M-79.17 811.515c2.548.079 5.532-1.189 7.645.238l2.198 11.335c16.793.521 1.135-7.522 5.447-11.098 1.962-1.628 5.682 1.865 7.645.237.901-.748-2.993-15.427-3.298-17.003-2.58-13.298-9.813-32.02-8.795-45.34 1.003-13.115 9.8-32.279 14.14-44.629 4.858-13.82 19.586-16.187 25.084-27.388.847-1.728-1.948-3.94-1.1-5.668 1.249-2.545 5.834-2.686 6.546-5.43.966-3.726-2.75-7.526-2.199-11.335.591-4.079 4.856-7.02 5.447-11.098.551-3.809-2.751-7.526-2.199-11.335 3.504-24.204 4.47-1.202 11.992-16.529l-2.199-11.335c2.339-9.018 13.114-21.29 17.438-27.626 610.001-893.631-246.744 364.337 40.323-66.349" stroke="#000" fill="url(#a)"/><path d="M175.412 909.555c.546 2.816 4.398 12.82-6.546 5.43-1.595-1.077-.733-3.779-1.099-5.668l-5.497-28.338c-10.19-52.538-2.141 6.372 12.991-89.732 4.383-27.839 2.061-56.462 6.445-84.302 3.592-22.812 12.995-44.39 17.388-67.061 3.222-16.631 2.174-33.903 5.396-50.534 1.873-9.665 3.489-14.06 4.899-23.803 1.655-11.427 8.55-12.003 9.647-23.498.937-9.816 1.151-11.256 1.672-17.005.329-3.627 1.065-5.31 5.232-19.531 1.082-3.693 3.904-12.976 4.631-16.756 35.607-185.072 10.632-54.733 11.512-66.246.776-10.151-5.558 37.015-3.916 27.048 8.95-54.335 8.139-41.184 13.174-43.027 2.662-.974-4.08-5.23-1.417-6.204 2.394-.876-10.938 15.039-8.975 13.411 1.481-1.229 4.648-18.431 6.129-19.659 2.48-2.057 36.595-83.944 40.055-83.836" stroke="#000" fill="url(#b)"/><path d="M485.757 1060.026c-.305-1.575-4.199-16.255-3.298-17.002 1.962-1.628 122.606 56.196 124.568 54.568.901-.748-119.915-69.759-120.221-71.334-2.407-12.409-3.595-15.858 1.049-33.768 6.387-24.632 19.793-47.384 23.934-72.492 6.417-38.91 3.307-78.857 7.494-118.07 4.813-45.077 15.52-89.438 19.486-134.598 3.941-44.873 2.118-90.075 4.196-135.072 6.327-136.993 14.621-89.736-3.549-214.182-5.233-35.838-13.963-71.986-20.887-107.684-1.186-6.112-1.408-23.531-5.497-28.338-2.279-2.679-6.465-3.226-8.744-5.905-1.247-1.466.495-4.591-1.099-5.668-2.113-1.427-5.532 1.19-7.645-.237-4.785-3.231.442-12.605-3.298-17.003-1.652-1.942-5.532 1.19-7.645-.237-3.19-2.154-1.466-7.557-2.199-11.335" stroke="#000" fill="url(#c)"/><path d="M1018.905 1223.048c-67.443-112.647-78.426-43.769-104.981-110.294-22.064-55.273-43.956-94.419-52.617-153.737-3.336-22.851-8.794-45.341-13.192-68.011-7.328-37.784-10.217-76.707-21.986-113.352-6.984-21.748-19.187-41.496-27.382-62.818-7.162-18.633-10.771-38.567-18.638-56.913-6.078-14.173-15.81-26.499-22.985-40.148-4.879-9.28-8.263-19.295-13.142-28.575-3.167-6.025-8.099-11.057-10.943-17.24-1.608-3.497-.407-7.929-2.198-11.336-2.357-4.482-7.13-7.297-9.844-11.572-2.062-3.25.991-9.181-2.198-11.335-2.113-1.427-7.16 2.265-7.645-.238" stroke="#000" fill="url(#d)"/></g><path d="M255.248 745.851c1.018 0 .204-6.639 0-7.757-.878-4.825-5.469-9.39-7.356-6.124M240.134 756.466c4.546-10.207 4.9-17.963 4.9-17.963s-1.634-6.223-5.308-8.574M227.886 767.898c22.047-34.872 13.439-35.554 8.982-40.011M266.264 791.17c-4.355-27.265-4.219-46.721-9.39-58.792" stroke="#000" fill="none"/><path d="M228.702 730.643c0 2.279 4.952-3.795 7.349-2.776 5.001 2.125 15.103 4.511 21.231 4.511" stroke="#000" fill="none"/><path d="M230.336 730.337c7.349-5.171 9.254-1.633 5.716 10.615q-4.736 16.396-22.047 39.603" fill="none" stroke="#2f2f2f"/></svg>

<svg class="shirtOverlay" width="86" height="380" viewBox="202.715 584.407 86.5933 380.048" preserveAspectRatio="xMidYMid meet" xmlns="http://www.w3.org/2000/svg">
  <defs id="svgEditorDefs">
    <path id="svgEditorClosePathDefs" class="skin" fill="black" style="stroke-width: 0px; stroke: none;"/>
    <radialGradient id="gradient-0" gradientUnits="userSpaceOnUse" cx="75.113" cy="535.828" r="154.283">
      <stop offset="0" style="stop-color: rgba(55, 55, 55, 1)"/>
      <stop offset="1" style="stop-color: rgba(4, 4, 4, 1)"/>
    </radialGradient>
    <radialGradient id="gradient-1" gradientUnits="userSpaceOnUse" cx="222.426" cy="613.949" r="64.707">
      <stop offset="0" style="stop-color: rgba(55, 55, 55, 1)"/>
      <stop offset="1" style="stop-color: rgba(4, 4, 4, 1)"/>
    </radialGradient>
    <radialGradient id="gradient-2" gradientUnits="userSpaceOnUse" cx="544.678" cy="619.647" r="62.354">
      <stop offset="0" style="stop-color: rgba(55, 55, 55, 1)"/>
      <stop offset="1" style="stop-color: rgba(4, 4, 4, 1)"/>
    </radialGradient>
    <radialGradient id="gradient-3" gradientUnits="userSpaceOnUse" cx="865.03" cy="880.213" r="153.876">
      <stop offset="0" style="stop-color: rgba(55, 55, 55, 1)"/>
      <stop offset="1" style="stop-color: rgba(4, 4, 4, 1)"/>
    </radialGradient>
  </defs>
  <g transform="matrix(0.04938, -0.002068, -0.009578, 0.066608, 232.061615, 729.375854)">
    <title id="title4521">Back Saw</title>
    <path d="M -79.17 811.515 C -76.622 811.594 -73.638 810.326 -71.525 811.753 C -71.525 811.753 -69.327 823.088 -69.327 823.088 C -52.534 823.609 -68.192 815.566 -63.88 811.99 C -61.918 810.362 -58.198 813.855 -56.235 812.227 C -55.334 811.479 -59.228 796.8 -59.533 795.224 C -62.113 781.926 -69.346 763.204 -68.328 749.884 C -67.325 736.769 -58.528 717.605 -54.188 705.255 C -49.33 691.435 -34.602 689.068 -29.104 677.867 C -28.257 676.139 -31.052 673.927 -30.204 672.199 C -28.955 669.654 -24.37 669.513 -23.658 666.769 C -22.692 663.043 -26.408 659.243 -25.857 655.434 C -25.266 651.355 -21.001 648.414 -20.41 644.336 C -19.859 640.527 -23.161 636.81 -22.609 633.001 C -19.105 608.797 -18.139 631.799 -10.617 616.472 C -10.617 616.472 -12.816 605.138 -12.816 605.137 C -10.477 596.119 0.298 583.847 4.622 577.511 C 614.623 -316.12 -242.122 941.848 44.945 511.162" style="stroke: rgb(0, 0, 0); fill: url(#gradient-0);"/>
    <path d="M 175.412 909.555 C 175.958 912.371 179.81 922.375 168.866 914.985 C 167.271 913.908 168.133 911.206 167.767 909.317 C 165.935 899.871 164.102 890.425 162.27 880.979 C 152.08 828.441 160.129 887.351 175.261 791.247 C 179.644 763.408 177.322 734.785 181.706 706.945 C 185.298 684.133 194.701 662.555 199.094 639.884 C 202.316 623.253 201.268 605.981 204.49 589.35 C 206.363 579.685 207.979 575.29 209.389 565.547 C 211.044 554.12 217.939 553.544 219.036 542.049 C 219.973 532.233 220.187 530.793 220.708 525.044 C 221.037 521.417 221.773 519.734 225.94 505.513 C 227.022 501.82 229.844 492.537 230.571 488.757 C 266.178 303.685 241.203 434.024 242.083 422.511 C 242.859 412.36 236.525 459.526 238.167 449.559 C 247.117 395.224 246.306 408.375 251.341 406.532 C 254.003 405.558 247.261 401.302 249.924 400.328 C 252.318 399.452 238.986 415.367 240.949 413.739 C 242.43 412.51 245.597 395.308 247.078 394.08 C 249.558 392.023 283.673 310.136 287.133 310.244" style="stroke: rgb(0, 0, 0); fill: url(#gradient-1);"/>
    <path d="M 485.757 1060.026 C 485.452 1058.451 481.558 1043.771 482.459 1043.024 C 484.421 1041.396 605.065 1099.22 607.027 1097.592 C 607.928 1096.844 487.112 1027.833 486.806 1026.258 C 484.399 1013.849 483.211 1010.4 487.855 992.49 C 494.242 967.858 507.648 945.106 511.789 919.998 C 518.206 881.088 515.096 841.141 519.283 801.928 C 524.096 756.851 534.803 712.49 538.769 667.33 C 542.71 622.457 540.887 577.255 542.965 532.258 C 549.292 395.265 557.586 442.522 539.416 318.076 C 534.183 282.238 525.453 246.09 518.529 210.392 C 517.343 204.28 517.121 186.861 513.032 182.054 C 510.753 179.375 506.567 178.828 504.288 176.149 C 503.041 174.683 504.783 171.558 503.189 170.481 C 501.076 169.054 497.657 171.671 495.544 170.244 C 490.759 167.013 495.986 157.639 492.246 153.241 C 490.594 151.299 486.714 154.431 484.601 153.004 C 481.411 150.85 483.135 145.447 482.402 141.669" style="stroke: rgb(0, 0, 0); fill: url(#gradient-2);"/>
    <path d="M 1018.905 1223.048 C 951.462 1110.401 940.479 1179.279 913.924 1112.754 C 891.86 1057.481 869.968 1018.335 861.307 959.017 C 857.971 936.166 852.513 913.676 848.115 891.006 C 840.787 853.222 837.898 814.299 826.129 777.654 C 819.145 755.906 806.942 736.158 798.747 714.836 C 791.585 696.203 787.976 676.269 780.109 657.923 C 774.031 643.75 764.299 631.424 757.124 617.775 C 752.245 608.495 748.861 598.48 743.982 589.2 C 740.815 583.175 735.883 578.143 733.039 571.96 C 731.431 568.463 732.632 564.031 730.841 560.624 C 728.484 556.142 723.711 553.327 720.997 549.052 C 718.935 545.802 721.988 539.871 718.799 537.717 C 716.686 536.29 711.639 539.982 711.154 537.479" style="stroke: rgb(0, 0, 0); fill: url(#gradient-3);"/>
  </g>
  <path d="M 255.248 745.851 C 256.266 745.851 255.452 739.212 255.248 738.094 C 254.37 733.269 249.779 728.704 247.892 731.97" style="stroke: rgb(0, 0, 0); fill: rgb(216, 216, 216); fill-opacity: 0;"/>
  <path d="M 240.134 756.466 C 244.68 746.259 245.034 738.503 245.034 738.503 C 245.034 738.503 243.4 732.28 239.726 729.929" style="stroke: rgb(0, 0, 0); fill: rgb(216, 216, 216); fill-opacity: 0;"/>
  <path d="M 227.886 767.898 C 249.933 733.026 241.325 732.344 236.868 727.887" style="stroke: rgb(0, 0, 0); fill: rgb(216, 216, 216); fill-opacity: 0;"/>
  <path style="fill: rgb(216, 216, 216); stroke: rgb(0, 0, 0); fill-opacity: 0;" d="M 266.264 791.17 C 261.909 763.905 262.045 744.449 256.874 732.378"/>
  <path d="M 228.702 730.643 C 228.702 732.922 233.654 726.848 236.051 727.867 C 241.052 729.992 251.154 732.378 257.282 732.378" style="stroke: rgb(0, 0, 0); fill: rgb(216, 216, 216); fill-opacity: 0;"/>
  <path style="fill: rgb(216, 216, 216); fill-opacity: 0; stroke: rgb(47, 47, 47);" d="M 230.336 730.337 C 237.685 725.166 239.59 728.704 236.052 740.952 Q 231.316 757.348 214.005 780.555"/>
</svg>
